resources/haticons/SVG/computer.svg

<!-- Generated by IcoMoon.io -->
<svg version="1.1" xmlns="http://www.w3.org/2000/svg" width="24" height="24" viewBox="0 0 24 24">
<title>computer</title>
<path d="M3.984 6v9.984h16.031v-9.984h-16.031zM20.016 18h3.984v2.016h-24v-2.016h3.984q-0.797 0-1.383-0.609t-0.586-1.406v-9.984q0-0.797 0.586-1.406t1.383-0.609h16.031q0.797 0 1.383 0.609t0.586 1.406v9.984q0 0.797-0.586 1.406t-1.383 0.609z"></path>
</svg>

<svg xmlns="http://www.w3.org/2000/svg" width="24" height="24"><path d="M3.984 6v9.984h16.031V6H3.984zm16.032 12H24v2.016H0V18h3.984q-.797 0-1.383-.609t-.586-1.406V6.001q0-.797.586-1.406t1.383-.609h16.031q.797 0 1.383.609t.586 1.406v9.984q0 .797-.586 1.406T20.015 18z"/></svg>
